svg/shipping-icon.svg

<svg xmlns="http://www.w3.org/2000/svg" preserveAspectRatio="xMidYMid" width="32" height="17" viewBox="0 0 32 17"><defs/><path d="M31.141 14.983c-.469.091-.95.032-1.424.049-.264 1.068-1.185 1.887-2.205 1.955-1.151.125-2.303-.741-2.595-1.955-4.291-.002-8.582-.002-12.871 0-.265 1.063-1.176 1.882-2.192 1.955-1.158.13-2.315-.737-2.609-1.958-.6-.004-1.202.015-1.802-.005-.589-.004-1.128-.591-1.069-1.24.022-1.035-.036-2.074.03-3.106.277-.214.679-.13.995-.068l.063.083c.05.902-.009 1.809.025 2.712.003.218.145.43.356.44.47.042.942.01 1.413.017.196-.791.728-1.478 1.438-1.777.874-.397 1.953-.185 2.634.532.346.336.553.801.692 1.275l9.422-.001c.247.026.567-.112.547-.433.026-3.299-.026-6.598.032-9.896-.009-.652.014-1.306-.009-1.958.004-.22-.15-.455-.372-.432-5.609-.059-11.22-.019-16.83-.029-.311-.015-.717.091-.922-.241-.295-.38.08-.964.507-.899C10.283.004 16.171 0 22.06.005c.479-.025.965.35 1.039.875.051.399.016.804.023 1.206 1.082.003 2.162-.003 3.242.002.661.011 1.247.472 1.599 1.054 1.219 2.006 2.484 3.98 3.727 5.969.114.211.318.395.305.66.004 1.34.003 2.681.001 4.022.027.552-.354 1.083-.855 1.19zm-20.147-.648c-.014-.908-.948-1.546-1.724-1.277-.572.147-1.005.754-.982 1.392-.024.783.649 1.468 1.367 1.425.746.034 1.434-.725 1.339-1.54zm16.456 1.534c.736-.035 1.336-.828 1.214-1.619-.071-.886-.999-1.458-1.756-1.183-.595.17-1.017.838-.942 1.502.033.793.77 1.404 1.484 1.3zm3.444-5.648c.034-.28-.168-.485-.289-.705-1.306-2.089-2.59-4.192-3.881-6.289-1.015 0-2.031-.006-3.047 0-.245-.007-.562.127-.545.446a599.09 599.09 0 0 0-.028 9.76c-.02.275.237.433.461.449.45.026.902.001 1.355.01.251-1.2 1.351-2.075 2.479-2.003 1.055.023 2.022.864 2.273 1.974.318-.006.637.022.954-.016.228-.092.277-.38.268-.612v-3.014zM12.827 2.864c.181.212.157.579-.041.77-.211.217-.525.165-.791.177-3.832-.015-7.666.019-11.496-.017-.553.012-.698-.919-.172-1.094.154-.06.319-.057.481-.06 3.802.004 7.605.001 11.408.002.215.001.468.021.611.222zM2.75 5.418c3.939.006 7.877-.003 11.815.004.187-.008.35.133.441.3.173.309-.035.753-.357.811-.165.033-.333.025-.501.028-3.839-.011-7.679.011-11.519-.011-.479.019-.719-.733-.313-1.024.122-.11.285-.111.434-.108zm1.343 2.75c2.122.007 4.244-.003 6.366.004.366-.027.663.45.475.802-.087.246-.349.342-.574.334-2.156-.003-4.313.007-6.469-.004-.512.029-.74-.791-.281-1.054.143-.103.321-.075.483-.082z" class="cls-1"/></svg>

<svg xmlns="http://www.w3.org/2000/svg" xmlns:xlink="http://www.w3.org/1999/xlink" preserveAspectRatio="xMidYMid" width="32" height="17" viewBox="0 0 32 17">
  <defs>
    <style>
      .cls-1 {
        fill: #ea202c;
        fill-rule: evenodd;
      }
    </style>
  </defs>
  <path d="M31.141,14.983 C30.672,15.074 30.191,15.015 29.717,15.032 C29.453,16.100 28.532,16.919 27.512,16.987 C26.361,17.112 25.209,16.246 24.917,15.032 C20.626,15.030 16.335,15.030 12.046,15.032 C11.781,16.095 10.870,16.914 9.854,16.987 C8.696,17.117 7.539,16.250 7.245,15.029 C6.645,15.025 6.043,15.044 5.443,15.024 C4.854,15.020 4.315,14.433 4.374,13.784 C4.396,12.749 4.338,11.710 4.404,10.678 C4.681,10.464 5.083,10.548 5.399,10.610 L5.462,10.693 C5.512,11.595 5.453,12.502 5.487,13.405 C5.490,13.623 5.632,13.835 5.843,13.845 C6.313,13.887 6.785,13.855 7.256,13.862 C7.452,13.071 7.984,12.384 8.694,12.085 C9.568,11.688 10.647,11.900 11.328,12.617 C11.674,12.953 11.881,13.418 12.020,13.892 C15.161,13.891 18.301,13.892 21.442,13.891 C21.689,13.917 22.009,13.779 21.989,13.458 C22.015,10.159 21.963,6.860 22.021,3.562 C22.012,2.910 22.035,2.256 22.012,1.604 C22.016,1.384 21.862,1.149 21.640,1.172 C16.031,1.113 10.420,1.153 4.810,1.143 C4.499,1.128 4.093,1.234 3.888,0.902 C3.593,0.522 3.968,-0.062 4.395,0.003 C10.283,0.004 16.171,-0.000 22.060,0.005 C22.539,-0.020 23.025,0.355 23.099,0.880 C23.150,1.279 23.115,1.684 23.122,2.086 C24.204,2.089 25.284,2.083 26.364,2.088 C27.025,2.099 27.611,2.560 27.963,3.142 C29.182,5.148 30.447,7.122 31.690,9.111 C31.804,9.322 32.008,9.506 31.995,9.771 C31.999,11.111 31.998,12.452 31.996,13.793 C32.023,14.345 31.642,14.876 31.141,14.983 ZM10.994,14.335 C10.980,13.427 10.046,12.789 9.270,13.058 C8.698,13.205 8.265,13.812 8.288,14.450 C8.264,15.233 8.937,15.918 9.655,15.875 C10.401,15.909 11.089,15.150 10.994,14.335 ZM27.450,15.869 C28.186,15.834 28.786,15.041 28.664,14.250 C28.593,13.364 27.665,12.792 26.908,13.067 C26.313,13.237 25.891,13.905 25.966,14.569 C25.999,15.362 26.736,15.973 27.450,15.869 ZM30.894,10.221 C30.928,9.941 30.726,9.736 30.605,9.516 C29.299,7.427 28.015,5.324 26.724,3.227 C25.709,3.227 24.693,3.221 23.677,3.227 C23.432,3.220 23.115,3.354 23.132,3.673 C23.098,6.925 23.085,10.180 23.104,13.433 C23.084,13.708 23.341,13.866 23.565,13.882 C24.015,13.908 24.467,13.883 24.920,13.892 C25.171,12.692 26.271,11.817 27.399,11.889 C28.454,11.912 29.421,12.753 29.672,13.863 C29.990,13.857 30.309,13.885 30.626,13.847 C30.854,13.755 30.903,13.467 30.894,13.235 C30.893,12.229 30.893,11.225 30.894,10.221 ZM12.827,2.864 C13.008,3.076 12.984,3.443 12.786,3.634 C12.575,3.851 12.261,3.799 11.995,3.811 C8.163,3.796 4.329,3.830 0.499,3.794 C-0.054,3.806 -0.199,2.875 0.327,2.700 C0.481,2.640 0.646,2.643 0.808,2.640 C4.610,2.644 8.413,2.641 12.216,2.642 C12.431,2.643 12.684,2.663 12.827,2.864 ZM2.750,5.418 C6.689,5.424 10.627,5.415 14.565,5.422 C14.752,5.414 14.915,5.555 15.006,5.722 C15.179,6.031 14.971,6.475 14.649,6.533 C14.484,6.566 14.316,6.558 14.148,6.561 C10.309,6.550 6.469,6.572 2.629,6.550 C2.150,6.569 1.910,5.817 2.316,5.526 C2.438,5.416 2.601,5.415 2.750,5.418 ZM4.093,8.168 C6.215,8.175 8.337,8.165 10.459,8.172 C10.825,8.145 11.122,8.622 10.934,8.974 C10.847,9.220 10.585,9.316 10.360,9.308 C8.204,9.305 6.047,9.315 3.891,9.304 C3.379,9.333 3.151,8.513 3.610,8.250 C3.753,8.147 3.931,8.175 4.093,8.168 Z" class="cls-1"/>
</svg>
